icons/messenger-line.svg

<svg viewBox="0 0 24 24" fill="currentColor" xmlns="http://www.w3.org/2000/svg">
    <path d="M7.76497 19.225C8.35411 18.9652 9.01479 18.9164 9.63316 19.0861C10.4032 19.2963 11.198 19.4019 12.001 19.4C16.5861 19.4 20.001 16.1135 20.001 11.7C20.001 7.28651 16.5861 4 12.001 4C7.41585 4 4.00098 7.28651 4.00098 11.7C4.00098 13.9699 4.89652 15.9722 6.46655 17.3764C7.0418 17.8853 7.38251 18.6082 7.409 19.3822L7.76497 19.225ZM12.001 2C17.6345 2 22.001 6.1265 22.001 11.7C22.001 17.2735 17.6345 21.4 12.001 21.4C11.0233 21.4023 10.0497 21.273 9.10648 21.0155C8.92907 20.9668 8.7403 20.9808 8.57198 21.055L6.58748 21.931C6.34398 22.0386 6.06291 22.018 5.83768 21.8761C5.61244 21.7342 5.47254 21.4896 5.46448 21.2235L5.40998 19.4445C5.40257 19.2257 5.30547 19.0196 5.14148 18.8745C3.19598 17.1345 2.00098 14.6155 2.00098 11.7C2.00098 6.1265 6.36748 2 12.001 2ZM5.99598 14.5365L8.93348 9.8765C9.15689 9.5221 9.51834 9.27728 9.93034 9.2013C10.3423 9.12532 10.7673 9.22511 11.1025 9.4765L13.439 11.2265C13.6528 11.3878 13.9476 11.3878 14.1615 11.2265L17.317 8.8315C17.738 8.512 18.288 9.016 18.006 9.4635L15.0685 14.1235C14.8451 14.4779 14.4836 14.7227 14.0716 14.7987C13.6596 14.8747 13.2346 14.7749 12.8995 14.5235L10.563 12.7735C10.3491 12.6122 10.0543 12.6122 9.84048 12.7735L6.68498 15.1685C6.26398 15.488 5.71398 14.984 5.99598 14.5365Z"/>
</svg>

<svg xmlns="http://www.w3.org/2000/svg" viewBox="0 0 24 24">
    <g>
        <path fill="none" d="M0 0h24v24H0z"/>
        <path fill-rule="nonzero" d="M7.764 19.225c.59-.26 1.25-.309 1.868-.139.77.21 1.565.316 2.368.314 4.585 0 8-3.287 8-7.7S16.585 4 12 4s-8 3.287-8 7.7c0 2.27.896 4.272 2.466 5.676a2.8 2.8 0 0 1 .942 2.006l.356-.157zM12 2c5.634 0 10 4.127 10 9.7 0 5.573-4.366 9.7-10 9.7a10.894 10.894 0 0 1-2.895-.384.8.8 0 0 0-.534.039l-1.984.876a.8.8 0 0 1-1.123-.707l-.055-1.78a.797.797 0 0 0-.268-.57C3.195 17.135 2 14.617 2 11.7 2 6.127 6.367 2 12 2zM5.995 14.537l2.937-4.66a1.5 1.5 0 0 1 2.17-.4l2.336 1.75a.6.6 0 0 0 .723 0l3.155-2.396c.421-.319.971.185.689.633l-2.937 4.66a1.5 1.5 0 0 1-2.17.4l-2.336-1.75a.6.6 0 0 0-.723 0l-3.155 2.395c-.421.319-.971-.185-.689-.633z"/>
    </g>
</svg>
